priv/static/svgs/icons_new/travel-airplane-up.svg

<svg width="32" height="32" viewBox="0 0 32 32" fill="none" xmlns="http://www.w3.org/2000/svg">
<path d="M27.0001 25.5001H5.00011M14.2736 14.8835L14.0963 16.6581L13.0077 20.6701L14.7909 19.9365L17.954 13.6837L24.505 10.1219C25.5182 9.56176 26.5773 8.87795 26.2897 8.19618C26.0022 7.51441 23.8454 7.32688 22.6284 7.82842L10.2157 13.8851L5.74872 11.3751L4.65918 11.824L7.55443 15.6476C7.15974 16.0323 6.91187 16.4017 7.0204 16.6591C7.331 17.3953 10.0123 16.8804 11.7315 16.1713L12.5486 15.8347M14.4506 10.066L11.21 9.17548L9.42796 9.91062L11.72 11.2344" stroke="black" stroke-linecap="round" stroke-linejoin="round"/>
</svg>

<svg width="32" height="32" viewBox="0 0 32 32" fill="none" xmlns="http://www.w3.org/2000/svg">
  <symbol id="item" viewBox="0 0 32 32" stroke-width="1" fill="none">
    <path d="M27 25.5H5m9.274-10.617-.178 1.775-1.088 4.012 1.783-.734 3.163-6.252 6.551-3.562c1.013-.56 2.072-1.244 1.785-1.926-.288-.682-2.445-.87-3.662-.368l-12.412 6.057-4.467-2.51-1.09.449 2.895 3.824c-.394.384-.642.754-.534 1.011.311.736 2.992.221 4.712-.488l.817-.336m1.902-5.769-3.241-.89-1.782.735 2.292 1.323" stroke="currentColor" stroke-linecap="round" stroke-linejoin="round"/>
  </symbol>
</svg>
